X: 13751
T: Forget Me Not
R: reel
M: 4/4
K: Cmajor
c2ec AGED|CA,~A,2 G,A,CD|EGcd ecdc|Addc dged|
c2ec AGED|CA,~A,2 G,A,CD|EGce dBcA|GEDF ECCG:|
|:c2gc acgc|fcec dcAc|Gc~c2 Gcea|gece d2eg|
agea gede|cd (3edc dcAG|EGce dBcA|GEDF ECCG:|
c2ec AGED|C~A,3 G,A,CD|EGcd ecdc|Addc dfed|
c2Bc AGED|C~A,3 G,A,CD|EGce dBcA|1 GEDG ECEG:|2 GEDB, C2EG||
|:c2gc acgc|fcec dcBc|Gc~c2 Gcea|gece d2eg|
a~e3 gede|cdec dcAG|EGce dBcA|1 GEDG ECEG:|2 GEDB, C2EG||
K:D
c2ec AGED|CA, (3A,A,A, G,A,CD|EGcd e2dc|Addc dfed|
c2ec AGED|CA, (3A,A,A, G,A,CD|EGce dcAc|GEDE C3B:|
|:(3cdc Gc acgc|fcec dcAc|Gcc2 Gcef|gece d2eg|
aee2 gede|cdec decA|(3GAG EG cBcA|GEDE C4:|
d2fd BAFE|DB,B,2 A,B,DE|FAde f2ed|Beed egfe|
d2fd BAFE|DB,B,2 A,B,DE|FAdf ecdB|AFEA FDD2:|
|:d2ad bdad|gdfd edBd|Add2 Adfb|afdf e2fg|
aff2 afef|defd efdA|FAdf ecdB|AFEA FDD2:|
d2fd BAFE|DB, (3B,B,B, A,B,DE|FABc (3ddd dc|(3BBB ef edBc|
(3ddd fd BAFE|DB, (3B,B,B, A,B,DE|FAdf ec (3dcB|AFEG FDDA:|
|:d2 (3ddd bdad|gdfd edBd|Ad (3ddd Adfg|afdf (3eee fa|
bf (3fff afec|defd ecdB|ABdf ecdB|AFEG FDD2:|
d2fd BAFE|DB,~B,2 A,B,DE|FA (3Bcd efeA|Beed egge|
dfed BAFE|DB,~B,2 A,B,DE|FA (3cBA eA (3cBA|d2AG FD (3ABc:|
|:d2ad bdad|gdfd edBd|Addc defg|afdf ea (3fga|
bf~f2 affe|defd e2dA|ABdf eABc|d2AG FD (3ABc:|

